icons/person-check.svg

<svg xmlns="http://www.w3.org/2000/svg" width="24" height="24" viewBox="0 0 24 24">
  <path d="M10,16 C12.9230769,16 15.8461538,16.9493754 15.9941334,19.3106425 L16,19.5 L16,20.5 C16,20.975 16,21.90125 15.142625,21.9926875 L15,22 L3,22 C2.1,22 2.01,21.19 2.001,20.6635 L2,19.5 C2,17.0641026 4.84812623,16.0522682 7.76928134,16.0019808 L8,16 L10,16 Z M9,6 C11.209139,6 13,7.790861 13,10 C13,12.209139 11.209139,14 9,14 C6.790861,14 5,12.209139 5,10 C5,7.790861 6.790861,6 9,6 Z M21.1616337,3.25016214 C21.543902,3.58745772 21.6069605,4.15185442 21.327,4.5624086 L21.2498499,4.66162164 L17.7204382,8.66162164 C17.3507811,9.08056628 16.7177952,9.11049089 16.3105198,8.75139549 L16.2207624,8.66162164 L14.7501742,6.99495497 C14.3847707,6.58083096 14.4242664,5.94889902 14.8383904,5.58349548 C15.2206588,5.2461999 15.7885149,5.25390727 16.1610152,5.5828086 L16.2498499,5.6717117 L16.9700121,6.488 L19.7501742,3.33837836 C20.1155778,2.92425435 20.7475097,2.8847586 21.1616337,3.25016214 Z"/>
</svg>

<svg xmlns="http://www.w3.org/2000/svg" viewBox="0 0 24 24">
  <path d="M10 16c2.92 0 5.85.95 6 3.31v1.19c0 .48 0 1.4-.86 1.5H3c-.9 0-.99-.81-1-1.34V19.5c0-2.44 2.85-3.45 5.77-3.5H10zM9 6a4 4 0 1 1 0 8 4 4 0 0 1 0-8zm12.16-2.75a1 1 0 0 1 .17 1.31l-.08.1-3.53 4a1 1 0 0 1-1.4.1l-.1-.1L14.75 7a1 1 0 0 1 1.41-1.4l.09.08.72.82 2.78-3.15a1 1 0 0 1 1.41-.09z"/>
</svg>
